dist/assets/svg/background.svg

<?xml version="1.0" encoding="UTF-8" standalone="no"?>
<svg width="1361px" height="609px" viewBox="0 0 1361 609" version="1.1" xmlns="http://www.w3.org/2000/svg" xmlns:xlink="http://www.w3.org/1999/xlink">
    <!-- Generator: Sketch 46.2 (44496) - http://www.bohemiancoding.com/sketch -->
    <title>Group 21</title>
    <desc>Created with Sketch.</desc>
    <defs></defs>
    <g id="Ant-Design-Pro-3.0" stroke="none" stroke-width="1" fill="none" fill-rule="evenodd">
        <g id="账户密码登录-校验" transform="translate(-79.000000, -82.000000)">
            <g id="Group-21" transform="translate(77.000000, 73.000000)">
                <g id="Group-18" opacity="0.8" transform="translate(74.901416, 569.699158) rotate(-7.000000) translate(-74.901416, -569.699158) translate(4.901416, 525.199158)">
                    <ellipse id="Oval-11" fill="#CFDAE6" opacity="0.25" cx="63.5748792" cy="32.468367" rx="21.7830479" ry="21.766008"></ellipse>
                    <ellipse id="Oval-3" fill="#CFDAE6" opacity="0.599999964" cx="5.98746479" cy="13.8668601" rx="5.2173913" ry="5.21330997"></ellipse>
                    <path d="M38.1354514,88.3520215 C43.8984227,88.3520215 48.570234,83.6838647 48.570234,77.9254015 C48.570234,72.1669383 43.8984227,67.4987816 38.1354514,67.4987816 C32.3724801,67.4987816 27.7006688,72.1669383 27.7006688,77.9254015 C27.7006688,83.6838647 32.3724801,88.3520215 38.1354514,88.3520215 Z" id="Oval-3-Copy" fill="#CFDAE6" opacity="0.45"></path>
                    <path d="M64.2775582,33.1704963 L119.185836,16.5654915" id="Path-12" stroke="#CFDAE6" stroke-width="1.73913043" stroke-linecap="round" stroke-linejoin="round"></path>
                    <path d="M42.1431708,26.5002681 L7.71190162,14.5640702" id="Path-16" stroke="#E0B4B7" stroke-width="0.702678964" opacity="0.7" stroke-linecap="round" stroke-linejoin="round" stroke-dasharray="1.405357899873153,2.108036953469981"></path>
                    <path d="M63.9262187,33.521561 L43.6721326,69.3250951" id="Path-15" stroke="#BACAD9" stroke-width="0.702678964" stroke-linecap="round" stroke-linejoin="round" stroke-dasharray="1.405357899873153,2.108036953469981"></path>
                    <g id="Group-17" transform="translate(126.850922, 13.543654) rotate(30.000000) translate(-126.850922, -13.543654) translate(117.285705, 4.381889)" fill="#CFDAE6">
                        <ellipse id="Oval-4" opacity="0.45" cx="9.13482653" cy="9.12768076" rx="9.13482653" ry="9.12768076"></ellipse>
                        <path d="M18.2696531,18.2553615 C18.2696531,13.2142826 14.1798519,9.12768076 9.13482653,9.12768076 C4.08980114,9.12768076 0,13.2142826 0,18.2553615 L18.2696531,18.2553615 Z" id="Oval-4" transform="translate(9.134827, 13.691521) scale(-1, -1) translate(-9.134827, -13.691521) "></path>
                    </g>
                </g>
                <g id="Group-14" transform="translate(216.294700, 123.725600) rotate(-5.000000) translate(-216.294700, -123.725600) translate(106.294700, 35.225600)">
                    <ellipse id="Oval-2" fill="#CFDAE6" opacity="0.25" cx="29.1176471" cy="29.1402439" rx="29.1176471" ry="29.1402439"></ellipse>
                    <ellipse id="Oval-2" fill="#CFDAE6" opacity="0.3" cx="29.1176471" cy="29.1402439" rx="21.5686275" ry="21.5853659"></ellipse>
                    <ellipse id="Oval-2-Copy" stroke="#CFDAE6" opacity="0.4" cx="179.019608" cy="138.146341" rx="23.7254902" ry="23.7439024"></ellipse>
                    <ellipse id="Oval-2" fill="#BACAD9" opacity="0.5" cx="29.1176471" cy="29.1402439" rx="10.7843137" ry="10.7926829"></ellipse>
                    <path d="M29.1176471,39.9329268 L29.1176471,18.347561 C23.1616351,18.347561 18.3333333,23.1796097 18.3333333,29.1402439 C18.3333333,35.1008781 23.1616351,39.9329268 29.1176471,39.9329268 Z" id="Oval-2" fill="#BACAD9"></path>
                    <g id="Group-9" opacity="0.45" transform="translate(172.000000, 131.000000)" fill="#E6A1A6">
                        <ellipse id="Oval-2-Copy-2" cx="7.01960784" cy="7.14634146" rx="6.47058824" ry="6.47560976"></ellipse>
                        <path d="M0.549019608,13.6219512 C4.12262681,13.6219512 7.01960784,10.722722 7.01960784,7.14634146 C7.01960784,3.56996095 4.12262681,0.670731707 0.549019608,0.670731707 L0.549019608,13.6219512 Z" id="Oval-2-Copy-2" transform="translate(3.784314, 7.146341) scale(-1, 1) translate(-3.784314, -7.146341) "></path>
                    </g>
                    <ellipse id="Oval-10" fill="#CFDAE6" cx="218.382353" cy="138.685976" rx="1.61764706" ry="1.61890244"></ellipse>
                    <ellipse id="Oval-10-Copy-2" fill="#E0B4B7" opacity="0.35" cx="179.558824" cy="175.381098" rx="1.61764706" ry="1.61890244"></ellipse>
                    <ellipse id="Oval-10-Copy" fill="#E0B4B7" opacity="0.35" cx="180.098039" cy="102.530488" rx="2.15686275" ry="2.15853659"></ellipse>
                    <path d="M28.9985381,29.9671598 L171.151018,132.876024" id="Path-11" stroke="#CFDAE6" opacity="0.8"></path>
                </g>
                <g id="Group-10" opacity="0.799999952" transform="translate(1054.100635, 36.659317) rotate(-11.000000) translate(-1054.100635, -36.659317) translate(1026.600635, 4.659317)">
                    <ellipse id="Oval-7" stroke="#CFDAE6" stroke-width="0.941176471" cx="43.8135593" cy="32" rx="11.1864407" ry="11.2941176"></ellipse>
                    <g id="Group-12" transform="translate(34.596774, 23.111111)" fill="#BACAD9">
                        <ellipse id="Oval-7" opacity="0.45" cx="9.18534718" cy="8.88888889" rx="8.47457627" ry="8.55614973"></ellipse>
                        <path d="M9.18534718,17.4450386 C13.8657264,17.4450386 17.6599235,13.6143199 17.6599235,8.88888889 C17.6599235,4.16345787 13.8657264,0.332739156 9.18534718,0.332739156 L9.18534718,17.4450386 Z" id="Oval-7"></path>
                    </g>
                    <path d="M34.6597385,24.809694 L5.71666084,4.76878945" id="Path-2" stroke="#CFDAE6" stroke-width="0.941176471"></path>
                    <ellipse id="Oval" stroke="#CFDAE6" stroke-width="0.941176471" cx="3.26271186" cy="3.29411765" rx="3.26271186" ry="3.29411765"></ellipse>
                    <ellipse id="Oval-Copy" fill="#F7E1AD" cx="2.79661017" cy="61.1764706" rx="2.79661017" ry="2.82352941"></ellipse>
                    <path d="M34.6312443,39.2922712 L5.06366663,59.785082" id="Path-10" stroke="#CFDAE6" stroke-width="0.941176471"></path>
                </g>
                <g id="Group-19" opacity="0.33" transform="translate(1282.537219, 446.502867) rotate(-10.000000) translate(-1282.537219, -446.502867) translate(1142.537219, 327.502867)">
                    <g id="Group-17" transform="translate(141.333539, 104.502742) rotate(275.000000) translate(-141.333539, -104.502742) translate(129.333539, 92.502742)" fill="#BACAD9">
                        <circle id="Oval-4" opacity="0.45" cx="11.6666667" cy="11.6666667" r="11.6666667"></circle>
                        <path d="M23.3333333,23.3333333 C23.3333333,16.8900113 18.1099887,11.6666667 11.6666667,11.6666667 C5.22334459,11.6666667 0,16.8900113 0,23.3333333 L23.3333333,23.3333333 Z" id="Oval-4" transform="translate(11.666667, 17.500000) scale(-1, -1) translate(-11.666667, -17.500000) "></path>
                    </g>
                    <circle id="Oval-5-Copy-6" fill="#CFDAE6" cx="201.833333" cy="87.5" r="5.83333333"></circle>
                    <path d="M143.5,88.8126685 L155.070501,17.6038544" id="Path-17" stroke="#BACAD9" stroke-width="1.16666667"></path>
                    <path d="M17.5,37.3333333 L127.466252,97.6449735" id="Path-18" stroke="#BACAD9" stroke-width="1.16666667"></path>
                    <polyline id="Path-19" stroke="#CFDAE6" stroke-width="1.16666667" points="143.902597 120.302281 174.935455 231.571342 38.5 147.510847 126.366941 110.833333"></polyline>
                    <path d="M159.833333,99.7453842 L195.416667,89.25" id="Path-20" stroke="#E0B4B7" stroke-width="1.16666667" opacity="0.6"></path>
                    <path d="M205.333333,82.1372105 L238.719406,36.1666667" id="Path-24" stroke="#BACAD9" stroke-width="1.16666667"></path>
                    <path d="M266.723424,132.231988 L207.083333,90.4166667" id="Path-25" stroke="#CFDAE6" stroke-width="1.16666667"></path>
                    <circle id="Oval-5" fill="#C1D1E0" cx="156.916667" cy="8.75" r="8.75"></circle>
                    <circle id="Oval-5-Copy-3" fill="#C1D1E0" cx="39.0833333" cy="148.75" r="5.25"></circle>
                    <circle id="Oval-5-Copy-2" fill-opacity="0.6" fill="#D1DEED" cx="8.75" cy="33.25" r="8.75"></circle>
                    <circle id="Oval-5-Copy-4" fill-opacity="0.6" fill="#D1DEED" cx="243.833333" cy="30.3333333" r="5.83333333"></circle>
                    <circle id="Oval-5-Copy-5" fill="#E0B4B7" cx="175.583333" cy="232.75" r="5.25"></circle>
                </g>
            </g>
        </g>
    </g>
</svg>

<svg width="1361" height="609" xmlns="http://www.w3.org/2000/svg"><g fill="none" fill-rule="evenodd"><g opacity=".8" transform="rotate(-7 4291.342 278.88)"><ellipse fill="#CFDAE6" opacity=".25" cx="63.575" cy="32.468" rx="21.783" ry="21.766"/><ellipse fill="#CFDAE6" opacity=".6" cx="5.987" cy="13.867" rx="5.217" ry="5.213"/><path d="M38.135 88.352c5.763 0 10.435-4.668 10.435-10.427 0-5.758-4.672-10.426-10.435-10.426-5.763 0-10.434 4.668-10.434 10.426 0 5.759 4.671 10.427 10.434 10.427z" fill="#CFDAE6" opacity=".45"/><path d="M64.278 33.17l54.908-16.605" stroke="#CFDAE6" stroke-width="1.739" stroke-linecap="round" stroke-linejoin="round"/><path d="M42.143 26.5L7.712 14.564" stroke="#E0B4B7" stroke-width=".703" opacity=".7" stroke-linecap="round" stroke-linejoin="round" stroke-dasharray="1.405357899873153,2.108036953469981"/><path d="M63.926 33.522L43.672 69.325" stroke="#BACAD9" stroke-width=".703" stroke-linecap="round" stroke-linejoin="round" stroke-dasharray="1.405357899873153,2.108036953469981"/><g transform="rotate(30 60.031 230.21)" fill="#CFDAE6"><ellipse opacity=".45" cx="9.135" cy="9.128" rx="9.135" ry="9.128"/><path d="M0 9.128c0 5.04 4.09 9.127 9.135 9.127s9.135-4.086 9.135-9.127H0z"/></g></g><g transform="rotate(-5 462.48 -1092.758)"><ellipse fill="#CFDAE6" opacity=".25" cx="29.118" cy="29.14" rx="29.118" ry="29.14"/><ellipse fill="#CFDAE6" opacity=".3" cx="29.118" cy="29.14" rx="21.569" ry="21.585"/><ellipse stroke="#CFDAE6" opacity=".4" cx="179.02" cy="138.146" rx="23.725" ry="23.744"/><ellipse fill="#BACAD9" opacity=".5" cx="29.118" cy="29.14" rx="10.784" ry="10.793"/><path d="M29.118 39.933V18.348c-5.956 0-10.785 4.832-10.785 10.792s4.829 10.793 10.785 10.793z" fill="#BACAD9"/><g opacity=".45" transform="translate(172 131)" fill="#E6A1A6"><ellipse cx="7.02" cy="7.146" rx="6.471" ry="6.476"/><path d="M7.02 13.622A6.474 6.474 0 0 1 .549 7.146 6.473 6.473 0 0 1 7.019.671v12.951z"/></g><ellipse fill="#CFDAE6" cx="218.382" cy="138.686" rx="1.618" ry="1.619"/><ellipse fill="#E0B4B7" opacity=".35" cx="179.559" cy="175.381" rx="1.618" ry="1.619"/><ellipse fill="#E0B4B7" opacity=".35" cx="180.098" cy="102.53" rx="2.157" ry="2.159"/><path d="M28.999 29.967L171.15 132.876" stroke="#CFDAE6" opacity=".8"/></g><g opacity=".8" transform="rotate(-11 517.26 -5290.613)"><ellipse stroke="#CFDAE6" stroke-width=".941" cx="43.814" cy="32" rx="11.186" ry="11.294"/><g transform="translate(34.597 23.111)" fill="#BACAD9"><ellipse opacity=".45" cx="9.185" cy="8.889" rx="8.475" ry="8.556"/><path d="M9.185 17.445c4.68 0 8.475-3.83 8.475-8.556 0-4.726-3.794-8.556-8.475-8.556v17.112z"/></g><path d="M34.66 24.81L5.717 4.769" stroke="#CFDAE6" stroke-width=".941"/><ellipse stroke="#CFDAE6" stroke-width=".941" cx="3.263" cy="3.294" rx="3.263" ry="3.294"/><ellipse fill="#F7E1AD" cx="2.797" cy="61.176" rx="2.797" ry="2.824"/><path d="M34.631 39.292L5.064 59.785" stroke="#CFDAE6" stroke-width=".941"/></g><g opacity=".33" transform="rotate(-10 2530.52 -6239.949)"><g transform="rotate(-85 127.141 -12.32)" fill="#BACAD9"><circle opacity=".45" cx="11.667" cy="11.667" r="11.667"/><path d="M0 11.667c0 6.443 5.223 11.666 11.667 11.666 6.443 0 11.666-5.223 11.666-11.666H0z"/></g><circle fill="#CFDAE6" cx="201.833" cy="87.5" r="5.833"/><path d="M143.5 88.813l11.57-71.21M17.5 37.333l109.966 60.312" stroke="#BACAD9" stroke-width="1.167"/><path stroke="#CFDAE6" stroke-width="1.167" d="M143.903 120.302l31.032 111.27L38.5 147.51l87.867-36.678"/><path d="M159.833 99.745l35.584-10.495" stroke="#E0B4B7" stroke-width="1.167" opacity=".6"/><path d="M205.333 82.137l33.386-45.97" stroke="#BACAD9" stroke-width="1.167"/><path d="M266.723 132.232l-59.64-41.815" stroke="#CFDAE6" stroke-width="1.167"/><circle fill="#C1D1E0" cx="156.917" cy="8.75" r="8.75"/><circle fill="#C1D1E0" cx="39.083" cy="148.75" r="5.25"/><circle fill-opacity=".6" fill="#D1DEED" cx="8.75" cy="33.25" r="8.75"/><circle fill-opacity=".6" fill="#D1DEED" cx="243.833" cy="30.333" r="5.833"/><circle fill="#E0B4B7" cx="175.583" cy="232.75" r="5.25"/></g></g></svg>
